public/assets/features/payment.svg

<svg width="58" height="58" viewBox="0 0 58 58" fill="none" xmlns="http://www.w3.org/2000/svg">
<path d="M49.1393 11.8236L43.4092 17.5537C42.9899 17.973 42.4588 18.1687 41.9277 18.1687C41.3966 18.1687 40.8655 17.973 40.4463 17.5537C40.0564 17.1592 39.8378 16.6269 39.8378 16.0723C39.8378 15.5176 40.0564 14.9853 40.4463 14.5908L46.1764 8.86072C41.2569 4.66795 34.9118 2.09639 27.9518 2.09639C12.5224 2.09639 0 14.6188 0 30.0482C0 45.4776 12.5224 58 27.9518 58C43.3812 58 55.9036 45.4776 55.9036 30.0482C55.9036 23.0882 53.332 16.7431 49.1393 11.8236ZM32.8434 29.5451C34.6323 30.188 37.0361 31.4737 37.0361 35.5827C37.0361 39.0766 34.2689 41.9557 30.8867 41.9557H30.0482V42.6545C30.0482 43.8005 29.0978 44.7508 27.9518 44.7508C26.8058 44.7508 25.8554 43.8005 25.8554 42.6545V41.9557H25.6318C21.9142 41.9557 18.8675 38.8251 18.8675 34.9677C18.8675 33.7937 19.8178 32.8434 20.9639 32.8434C22.1099 32.8434 23.0602 33.7937 23.0602 34.9398C23.0602 36.4771 24.2063 37.7349 25.6318 37.7349H25.8554V31.5296L23.0602 30.5513C21.2713 29.9084 18.8675 28.6227 18.8675 24.5137C18.8675 21.0198 21.6347 18.1407 25.0169 18.1407H25.8554V17.4699C25.8554 16.3239 26.8058 15.3735 27.9518 15.3735C29.0978 15.3735 30.0482 16.3239 30.0482 17.4699V18.1687H30.2718C33.9894 18.1687 37.0361 21.2993 37.0361 25.1566C37.0361 26.3027 36.0858 27.253 34.9398 27.253C33.7937 27.253 32.8434 26.3027 32.8434 25.1566C32.8434 23.6193 31.6974 22.3614 30.2718 22.3614H30.0482V28.5667L32.8434 29.5451ZM57.8323 1.28578C57.6113 0.771033 57.201 0.360797 56.6863 0.139759C56.4348 0.0504551 56.1704 0.00323505 55.9036 0H44.7229C43.5769 0 42.6265 0.950361 42.6265 2.09639C42.6265 3.24241 43.5769 4.19277 44.7229 4.19277H50.8443L46.1764 8.86072C47.2386 9.78313 48.2169 10.7614 49.1393 11.8236L53.8072 7.15566V13.2771C53.8072 14.4231 54.7576 15.3735 55.9036 15.3735C57.0496 15.3735 58 14.4231 58 13.2771V2.09639C58 1.81687 57.9441 1.5653 57.8323 1.28578Z" fill="url(#paint0_linear_383_25)"/>
<defs>
<linearGradient id="paint0_linear_383_25" x1="12.3465" y1="3.51733" x2="76.0891" y2="70.1312" gradientUnits="userSpaceOnUse">
<stop stop-color="#D84D61"/>
<stop offset="0.473958" stop-color="#D3115F"/>
<stop offset="1" stop-color="#BE0970"/>
</linearGradient>
</defs>
</svg>

<svg xmlns="http://www.w3.org/2000/svg" width="58" height="58" fill="none" xmlns:v="https://vecta.io/nano"><path d="M49.139 11.824l-5.73 5.73c-.419.419-.95.615-1.481.615s-1.062-.196-1.481-.615c-.39-.395-.608-.927-.608-1.481s.219-1.087.608-1.481l5.73-5.73c-4.919-4.193-11.265-6.764-18.225-6.764C12.522 2.096 0 14.619 0 30.048S12.522 58 27.952 58s27.952-12.522 27.952-27.952c0-6.96-2.572-13.305-6.764-18.225zM32.843 29.545c1.789.643 4.193 1.929 4.193 6.038 0 3.494-2.767 6.373-6.149 6.373h-.838v.699c0 1.146-.95 2.096-2.096 2.096s-2.096-.95-2.096-2.096v-.699h-.224c-3.718 0-6.764-3.131-6.764-6.988 0-1.174.95-2.124 2.096-2.124s2.096.95 2.096 2.096c0 1.537 1.146 2.795 2.572 2.795h.224V31.53l-2.795-.978c-1.789-.643-4.193-1.929-4.193-6.038 0-3.494 2.767-6.373 6.149-6.373h.838v-.671c0-1.146.95-2.096 2.096-2.096s2.096.95 2.096 2.096v.699h.224c3.718 0 6.764 3.131 6.764 6.988 0 1.146-.95 2.096-2.096 2.096s-2.096-.95-2.096-2.096c0-1.537-1.146-2.795-2.572-2.795h-.224v6.205l2.795.978zM57.832 1.286C57.611.771 57.201.361 56.686.14 56.435.05 56.17.003 55.904 0H44.723c-1.146 0-2.096.95-2.096 2.096s.95 2.096 2.096 2.096h6.121l-4.668 4.668a29.64 29.64 0 0 1 2.963 2.963l4.668-4.668v6.121c0 1.146.95 2.096 2.096 2.096S58 14.423 58 13.277V2.096c0-.28-.056-.531-.168-.811z" fill="url(#A)"/><defs><linearGradient id="A" x1="12.347" y1="3.517" x2="76.089" y2="70.131" gradientUnits="userSpaceOnUse"><stop stop-color="#d84d61"/><stop offset=".474" stop-color="#d3115f"/><stop offset="1" stop-color="#be0970"/></linearGradient></defs></svg>
